public/icons/react.svg

<svg width="60" height="60" viewBox="0 0 60 60" fill="none" xmlns="http://www.w3.org/2000/svg">
<path d="M48.1242 21.178C47.525 20.9733 46.9215 20.7827 46.3137 20.6061C46.4145 20.196 46.5074 19.7835 46.5926 19.3686C47.9637 12.7007 47.0672 7.3288 44.0074 5.56044C41.0777 3.86356 36.273 5.63192 31.4262 9.86005C30.9496 10.2772 30.4828 10.7069 30.0258 11.1491C29.7211 10.8554 29.4086 10.5679 29.0883 10.2866C24.0082 5.76552 18.9164 3.86122 15.8602 5.63544C12.9305 7.33583 12.0598 12.3854 13.2938 18.7054C13.4172 19.3304 13.5559 19.9526 13.7098 20.5722C12.9891 20.7772 12.293 20.9964 11.6273 21.2284C5.67891 23.3085 1.875 26.5698 1.875 29.9518C1.875 33.4464 5.95781 36.9503 12.1605 39.0749C12.6637 39.246 13.1715 39.405 13.684 39.5518C13.5176 40.2151 13.3703 40.8858 13.2422 41.564C12.0703 47.7749 12.9844 52.705 15.9082 54.3948C18.9281 56.1397 23.9941 54.3468 28.9324 50.0225C29.323 49.6804 29.7137 49.319 30.1043 48.9386C30.598 49.4159 31.1059 49.8792 31.6277 50.3284C36.409 54.4511 41.1305 56.1163 44.0496 54.4218C47.0672 52.671 48.048 47.3741 46.7742 40.93C46.6766 40.4378 46.5641 39.9354 46.4367 39.4229C46.793 39.3175 47.1418 39.2085 47.4832 39.096C53.9285 36.955 58.1273 33.4932 58.1273 29.9554C58.125 26.5569 54.1992 23.2745 48.1242 21.178ZM33.007 11.6765C37.159 8.05419 41.0402 6.6245 42.8098 7.64637C44.693 8.73505 45.4254 13.1249 44.2418 18.8823C44.1637 19.2573 44.0793 19.6311 43.9887 20.0038C41.5109 19.4402 38.9983 19.0425 36.4676 18.8132C35.0186 16.7259 33.4302 14.739 31.7133 12.8659C32.1336 12.4581 32.5641 12.0616 33.0047 11.6765H33.007ZM18.484 32.8417C18.9926 33.8261 19.5242 34.7983 20.0789 35.7585C20.6437 36.7382 21.2324 37.7034 21.8449 38.6542C20.1036 38.4649 18.3732 38.186 16.6605 37.8186C17.1574 36.2108 17.7691 34.5409 18.484 32.8417ZM18.484 27.178C17.7809 25.5151 17.1855 23.8792 16.6969 22.2995C18.3023 21.9397 20.0133 21.6456 21.7969 21.4229C21.1992 22.3557 20.6242 23.3022 20.0719 24.2624C19.5195 25.2225 18.9891 26.1944 18.4805 27.178H18.484ZM19.7613 30.0104C20.502 28.4659 21.2996 26.9511 22.1543 25.4659C23.0082 23.9815 23.9172 22.5311 24.8813 21.1147C26.5547 20.9882 28.2703 20.9214 30.0035 20.9214C31.7367 20.9214 33.4629 20.9882 35.1352 21.1159C36.0891 22.5292 36.9926 23.9745 37.8457 25.4518C38.6988 26.9292 39.507 28.437 40.2703 29.9753C39.5172 31.5253 38.7109 33.0464 37.8516 34.5386C36.9992 36.0229 36.1008 37.4776 35.1562 38.9026C33.4863 39.0198 31.7578 39.0843 30 39.0843C28.2422 39.0843 26.5465 39.0292 24.907 38.9226C23.9359 37.5015 23.0195 36.0448 22.1578 34.5526C21.2961 33.0604 20.4961 31.5464 19.7578 30.0104H19.7613ZM39.9316 35.7421C40.498 34.7593 41.0418 33.7636 41.5629 32.755C42.2772 34.3746 42.9077 36.0299 43.452 37.7143C41.7192 38.1045 39.9672 38.4038 38.2031 38.6108C38.7984 37.6663 39.3746 36.71 39.9316 35.7421ZM41.5395 27.1792C41.0207 26.1909 40.4813 25.2143 39.9211 24.2495C39.3742 23.2979 38.8043 22.3581 38.2113 21.43C40.0055 21.6573 41.727 21.9597 43.3406 22.3288C42.8218 23.9747 42.2207 25.5936 41.5395 27.1792ZM30.027 14.5874C31.1971 15.866 32.302 17.2029 33.3375 18.5929C31.1227 18.4874 28.9062 18.4874 26.6883 18.5929C27.7816 17.1468 28.9008 15.805 30.027 14.5874ZM17.0695 7.71786C18.9516 6.62567 23.1129 8.18661 27.4992 12.0854C27.7793 12.335 28.0617 12.5964 28.343 12.8671C26.6172 14.7399 25.0176 16.7251 23.5547 18.8097C21.0296 19.0372 18.522 19.4286 16.0477 19.9815C15.9047 19.4065 15.7758 18.8276 15.6609 18.2448C14.6004 12.8272 15.3023 8.74325 17.0695 7.71786ZM14.3262 37.2315C13.8574 37.0979 13.3945 36.953 12.9375 36.7968C10.1953 35.8593 7.93008 34.6358 6.375 33.3034C4.98281 32.1093 4.27734 30.9175 4.27734 29.9518C4.27734 27.8999 7.33125 25.2819 12.4242 23.5065C13.0641 23.2839 13.7094 23.0804 14.3602 22.896C15.1165 25.3268 16.0326 27.705 17.1023 30.0151C16.0198 32.3572 15.0925 34.7678 14.3262 37.2315ZM27.3492 48.2085C25.166 50.121 22.9793 51.4768 21.0516 52.16C19.3195 52.7729 17.9402 52.7905 17.107 52.3089C15.3328 51.2835 14.5945 47.3237 15.6012 42.0128C15.7207 41.3878 15.8574 40.7628 16.0113 40.1378C18.5104 40.6761 21.0432 41.0438 23.5922 41.2382C25.0694 43.3336 26.6822 45.3301 28.4203 47.2147C28.0711 47.5581 27.7137 47.8886 27.3492 48.2085ZM30.0937 45.4874C28.9547 44.2558 27.818 42.8929 26.7094 41.428C27.7867 41.4702 28.8836 41.4913 30 41.4913C31.1461 41.4913 32.2805 41.4667 33.3984 41.4163C32.3667 42.8286 31.2637 44.1874 30.0937 45.4874ZM44.6859 48.8378C44.3508 50.6472 43.677 51.8542 42.8438 52.337C41.0707 53.3659 37.2797 52.0288 33.1922 48.5026C32.7234 48.0995 32.2547 47.6671 31.7777 47.2136C33.482 45.3215 35.057 43.317 36.4922 41.2136C39.0553 40.9964 41.6004 40.6029 44.1094 40.0358C44.2242 40.4999 44.3258 40.9546 44.4141 41.3999C44.9777 44.2475 45.0586 46.8233 44.6859 48.8378ZM46.725 36.8097C46.418 36.9116 46.1016 37.01 45.7805 37.1061C44.9937 34.6639 44.0419 32.2779 42.9316 29.9647C44.0003 27.6824 44.9148 25.331 45.6691 22.9265C46.2445 23.094 46.8035 23.2698 47.3414 23.4561C52.5469 25.2515 55.7227 27.9093 55.7227 29.9518C55.7227 32.1315 52.2926 34.9604 46.725 36.8097Z" fill="#61DAFB"/>
<path d="M29.9992 34.9863C30.9966 34.9895 31.9724 34.6968 32.8032 34.1451C33.6341 33.5933 34.2825 32.8075 34.6664 31.887C35.0503 30.9665 35.1524 29.9528 34.9599 28.9743C34.7673 27.9957 34.2887 27.0963 33.5846 26.3899C32.8805 25.6836 31.9827 25.202 31.0048 25.0062C30.0268 24.8105 29.0128 24.9093 28.0911 25.2902C27.1694 25.6711 26.3814 26.317 25.827 27.146C25.2725 27.975 24.9766 28.9499 24.9766 29.9472C24.9752 30.608 25.104 31.2625 25.3558 31.8735C25.6075 32.4844 25.9771 33.0397 26.4436 33.5077C26.91 33.9757 27.4642 34.3471 28.0743 34.6008C28.6844 34.8546 29.3385 34.9855 29.9992 34.9863Z" fill="#61DAFB"/>
</svg>

<svg xmlns="http://www.w3.org/2000/svg" width="60" height="60" fill="none"><path fill="#61DAFB" d="M48.124 21.178c-.599-.205-1.203-.395-1.81-.572.1-.41.193-.823.279-1.237 1.37-6.668.474-12.04-2.586-13.809-2.93-1.696-7.734.072-12.58 4.3-.477.417-.944.847-1.401 1.29a27.48 27.48 0 0 0-.938-.863C24.008 5.766 18.916 3.86 15.86 5.635c-2.93 1.7-3.8 6.75-2.566 13.07.123.625.262 1.248.416 1.867-.72.205-1.417.424-2.083.656-5.948 2.08-9.752 5.342-9.752 8.724 0 3.494 4.083 6.998 10.286 9.123.503.171 1.01.33 1.523.477a34.849 34.849 0 0 0-.442 2.012c-1.172 6.21-.258 11.141 2.666 12.83 3.02 1.746 8.086-.047 13.024-4.371.391-.343.782-.704 1.172-1.084.494.477 1.002.94 1.524 1.39 4.781 4.122 9.502 5.787 12.422 4.093 3.017-1.751 3.998-7.048 2.724-13.492-.097-.492-.21-.995-.337-1.507.356-.105.705-.215 1.046-.327 6.446-2.141 10.644-5.603 10.644-9.14-.002-3.4-3.928-6.681-10.003-8.778Zm-15.117-9.502c4.152-3.622 8.033-5.051 9.803-4.03 1.883 1.089 2.615 5.479 1.432 11.236-.078.375-.163.75-.253 1.122a57.17 57.17 0 0 0-7.521-1.19 56.403 56.403 0 0 0-4.755-5.948c.42-.408.851-.804 1.292-1.19h.002ZM18.484 32.843a70.773 70.773 0 0 0 3.36 5.812 50.993 50.993 0 0 1-5.184-.835 54.06 54.06 0 0 1 1.824-4.977Zm0-5.664a52.08 52.08 0 0 1-1.787-4.879 54.003 54.003 0 0 1 5.1-.876 69.398 69.398 0 0 0-1.725 2.84 74.001 74.001 0 0 0-1.591 2.915h.003Zm1.277 2.832a68.452 68.452 0 0 1 5.12-8.895 68.089 68.089 0 0 1 10.254 0 73.019 73.019 0 0 1 2.71 4.337 81.38 81.38 0 0 1 2.425 4.523 73.563 73.563 0 0 1-2.418 4.564 80.034 80.034 0 0 1-2.696 4.364c-1.67.117-3.398.181-5.156.181-1.758 0-3.453-.055-5.093-.161a68.13 68.13 0 0 1-5.15-8.913h.004Zm20.17 5.732a74.09 74.09 0 0 0 1.632-2.987 51.635 51.635 0 0 1 1.889 4.96 50.89 50.89 0 0 1-5.249.896c.595-.945 1.172-1.901 1.729-2.869Zm1.608-8.563a78.454 78.454 0 0 0-1.618-2.93 70.244 70.244 0 0 0-1.71-2.819c1.794.227 3.516.53 5.13.899a51.544 51.544 0 0 1-1.802 4.85ZM30.027 14.587a51.55 51.55 0 0 1 3.31 4.006 69.885 69.885 0 0 0-6.649 0 52.832 52.832 0 0 1 3.339-4.006ZM17.07 7.717c1.882-1.091 6.043.47 10.43 4.368.28.25.562.511.843.782a57.57 57.57 0 0 0-4.788 5.943 58.49 58.49 0 0 0-7.507 1.172 36.239 36.239 0 0 1-.387-1.737c-1.06-5.418-.359-9.502 1.409-10.527Zm-2.744 29.514a28.133 28.133 0 0 1-1.389-.434c-2.742-.938-5.007-2.161-6.562-3.494-1.392-1.194-2.098-2.385-2.098-3.351 0-2.052 3.054-4.67 8.147-6.446.64-.222 1.285-.426 1.936-.61a57.83 57.83 0 0 0 2.742 7.12 58.886 58.886 0 0 0-2.776 7.215ZM27.35 48.209c-2.183 1.913-4.37 3.269-6.297 3.952-1.732.613-3.112.63-3.945.149-1.774-1.026-2.512-4.985-1.506-10.296.12-.625.256-1.25.41-1.875 2.5.538 5.032.906 7.581 1.1a58.725 58.725 0 0 0 4.828 5.977c-.349.343-.706.674-1.07.993Zm2.745-2.72a53.904 53.904 0 0 1-3.385-4.06 84.08 84.08 0 0 0 3.291.063c1.146 0 2.28-.024 3.398-.075a51.478 51.478 0 0 1-3.304 4.071Zm14.592 3.35c-.335 1.81-1.009 3.016-1.842 3.499-1.773 1.029-5.564-.308-9.652-3.834a38.471 38.471 0 0 1-1.414-1.29 56.791 56.791 0 0 0 4.714-6 55.998 55.998 0 0 0 7.617-1.177c.115.464.217.919.305 1.364.564 2.848.645 5.423.272 7.438Zm2.039-12.028c-.307.102-.623.2-.944.296a56.645 56.645 0 0 0-2.85-7.141 56.42 56.42 0 0 0 2.738-7.038c.576.167 1.135.343 1.672.53 5.206 1.794 8.382 4.452 8.382 6.495 0 2.18-3.43 5.008-8.998 6.858Z"/><path fill="#61DAFB" d="M30 34.986a5.04 5.04 0 1 0-5.023-5.039 5.027 5.027 0 0 0 5.022 5.04Z"/></svg>
